src/assets/outline/CopySuccess.svg

<?xml version="1.0" encoding="UTF-8"?>
<svg width="24" height="24" viewBox="0 0 24 24" xmlns="http://www.w3.org/2000/svg">
 <path d="m17.1 1.25h-4.2c-3.91 0-5.65 1.74-5.65 5.65v1.1c0 0.41 0.34 0.75 0.75 0.75h3.1c3.1 0 4.15 1.05 4.15 4.15v3.1c0 0.41 0.34 0.75 0.75 0.75h1.1c3.91 0 5.65-1.74 5.65-5.65v-4.2c0-3.91-1.74-5.65-5.65-5.65zm-8.35 6v-0.35c0-3.1 1.05-4.15 4.15-4.15h4.2c3.1 0 4.15 1.05 4.15 4.15v4.2c0 3.1-1.05 4.15-4.15 4.15h-0.35v-2.35c0-3.91-1.74-5.65-5.65-5.65h-2.35z"/>
 <path d="m11.1 7.25h-4.2c-3.91 0-5.65 1.74-5.65 5.65v4.2c0 3.91 1.74 5.65 5.65 5.65h4.2c3.91 0 5.65-1.74 5.65-5.65v-4.2c0-3.91-1.74-5.65-5.65-5.65zm-4.2 14c-3.1 0-4.15-1.05-4.15-4.15v-4.2c0-3.1 1.05-4.15 4.15-4.15h4.2c3.1 0 4.15 1.05 4.15 4.15v4.2c0 3.1-1.05 4.15-4.15 4.15h-4.2z"/>
 <path d="m8.03 17.7c-0.19 0-0.38-0.07-0.53-0.22l-1.95-1.95c-0.29-0.29-0.29-0.77 0-1.06s0.77-0.29 1.06 0l1.42 1.42 3.36-3.36c0.29-0.29 0.77-0.29 1.06 0s0.29 0.77 0 1.06l-3.9 3.89c-0.14 0.14-0.33 0.22-0.52 0.22z"/>
</svg>

<svg width="24" height="24" viewBox="0 0 24 24"  xmlns="http://www.w3.org/2000/svg">
<path d="M17.1 1.25H12.9C8.99 1.25 7.25 2.99 7.25 6.9V8C7.25 8.41 7.59 8.75 8 8.75H11.1C14.2 8.75 15.25 9.8 15.25 12.9V16C15.25 16.41 15.59 16.75 16 16.75H17.1C21.01 16.75 22.75 15.01 22.75 11.1V6.9C22.75 2.99 21.01 1.25 17.1 1.25ZM8.75 7.25V6.9C8.75 3.8 9.8 2.75 12.9 2.75H17.1C20.2 2.75 21.25 3.8 21.25 6.9V11.1C21.25 14.2 20.2 15.25 17.1 15.25H16.75V12.9C16.75 8.99 15.01 7.25 11.1 7.25H8.75Z" />
<path d="M11.1 7.25H6.9C2.99 7.25 1.25 8.99 1.25 12.9V17.1C1.25 21.01 2.99 22.75 6.9 22.75H11.1C15.01 22.75 16.75 21.01 16.75 17.1V12.9C16.75 8.99 15.01 7.25 11.1 7.25ZM6.9 21.25C3.8 21.25 2.75 20.2 2.75 17.1V12.9C2.75 9.8 3.8 8.75 6.9 8.75H11.1C14.2 8.75 15.25 9.8 15.25 12.9V17.1C15.25 20.2 14.2 21.25 11.1 21.25H6.9Z" />
<path d="M8.03002 17.7C7.84002 17.7 7.65002 17.63 7.50002 17.48L5.55002 15.53C5.26002 15.24 5.26002 14.76 5.55002 14.47C5.84002 14.18 6.32002 14.18 6.61002 14.47L8.03002 15.89L11.39 12.53C11.68 12.24 12.16 12.24 12.45 12.53C12.74 12.82 12.74 13.3 12.45 13.59L8.55002 17.48C8.41002 17.62 8.22002 17.7 8.03002 17.7Z" />
</svg>
